openmetadata-ui/src/main/resources/ui/src/assets/svg/delete-gradiant.svg

<svg width="29" height="32" viewBox="0 0 29 32" fill="none" xmlns="http://www.w3.org/2000/svg">
<path d="M25.9125 3.75H21.225V2.8125C21.225 1.26169 19.9633 0 18.4125 0H10.9125C9.36166 0 8.09998 1.26169 8.09998 2.8125V3.75H3.41248C1.86166 3.75 0.599976 5.01169 0.599976 6.5625C0.599976 7.808 1.41404 8.86631 2.53779 9.23506L4.20998 29.421C4.33041 30.8672 5.56154 32 7.01273 32H22.3122C23.7635 32 24.9946 30.8672 25.1151 29.4206L26.7872 9.235C27.9109 8.86631 28.725 7.808 28.725 6.5625C28.725 5.01169 27.4633 3.75 25.9125 3.75ZM9.97498 2.8125C9.97498 2.29556 10.3955 1.875 10.9125 1.875H18.4125C18.9294 1.875 19.35 2.29556 19.35 2.8125V3.75H9.97498V2.8125ZM23.2465 29.2654C23.2063 29.7474 22.796 30.125 22.3122 30.125H7.01273C6.52904 30.125 6.11866 29.7474 6.0786 29.2658L4.43085 9.375H24.8941L23.2465 29.2654ZM25.9125 7.5H3.41248C2.89554 7.5 2.47498 7.07944 2.47498 6.5625C2.47498 6.04556 2.89554 5.625 3.41248 5.625H25.9125C26.4294 5.625 26.85 6.04556 26.85 6.5625C26.85 7.07944 26.4294 7.5 25.9125 7.5Z" fill="url(#paint0_linear_9008_13394)"/>
<path d="M11.2481 27.2545L10.3106 12.1295C10.2786 11.6127 9.83126 11.2197 9.31695 11.2518C8.80014 11.2839 8.4072 11.7288 8.4392 12.2455L9.3767 27.3706C9.40751 27.8677 9.82026 28.2501 10.3115 28.2501C10.8544 28.2501 11.2814 27.7928 11.2481 27.2545Z" fill="url(#paint1_linear_9008_13394)"/>
<path d="M15 11.25C14.4822 11.25 14.0625 11.6697 14.0625 12.1875V27.3125C14.0625 27.8302 14.4822 28.25 15 28.25C15.5178 28.25 15.9375 27.8302 15.9375 27.3125V12.1875C15.9375 11.6697 15.5178 11.25 15 11.25Z" fill="url(#paint2_linear_9008_13394)"/>
<path d="M20.6829 11.2518C20.1673 11.2198 19.7212 11.6127 19.6892 12.1295L18.7517 27.2545C18.7198 27.7712 19.1127 28.2161 19.6294 28.2482C20.1465 28.2802 20.5911 27.8871 20.6231 27.3705L21.5606 12.2455C21.5926 11.7287 21.1997 11.2838 20.6829 11.2518Z" fill="url(#paint3_linear_9008_13394)"/>
<defs>
<linearGradient id="paint0_linear_9008_13394" x1="1.50037" y1="0.5" x2="29.001" y2="32" gradientUnits="userSpaceOnUse">
<stop stop-color="#7147E8"/>
<stop offset="0.395833" stop-color="#5D57ED"/>
<stop offset="1" stop-color="#1890FF"/>
</linearGradient>
<linearGradient id="paint1_linear_9008_13394" x1="9.84367" y1="11.25" x2="9.84367" y2="28.2501" gradientUnits="userSpaceOnUse">
<stop stop-color="#7147E8"/>
<stop offset="1" stop-color="#1890FF"/>
</linearGradient>
<linearGradient id="paint2_linear_9008_13394" x1="15" y1="11.25" x2="15" y2="28.25" gradientUnits="userSpaceOnUse">
<stop stop-color="#7147E8"/>
<stop offset="1" stop-color="#1890FF"/>
</linearGradient>
<linearGradient id="paint3_linear_9008_13394" x1="20.4999" y1="11" x2="19.9999" y2="28" gradientUnits="userSpaceOnUse">
<stop stop-color="#7147E8"/>
<stop offset="1" stop-color="#1890FF"/>
</linearGradient>
</defs>
</svg>

<svg xmlns="http://www.w3.org/2000/svg" width="29" height="32" fill="none"><path fill="url(#a)" d="M25.913 3.75h-4.688v-.938A2.816 2.816 0 0 0 18.412 0h-7.5A2.816 2.816 0 0 0 8.1 2.813v.937H3.412A2.816 2.816 0 0 0 .6 6.563c0 1.245.814 2.303 1.938 2.672L4.21 29.421A2.829 2.829 0 0 0 7.013 32h15.3a2.83 2.83 0 0 0 2.802-2.58l1.672-20.185a2.817 2.817 0 0 0 1.938-2.672 2.816 2.816 0 0 0-2.813-2.813ZM9.975 2.812c0-.516.42-.937.938-.937h7.5c.516 0 .937.42.937.938v.937H9.975v-.938Zm13.272 26.453a.943.943 0 0 1-.935.86h-15.3a.943.943 0 0 1-.933-.86L4.43 9.376h20.463l-1.647 19.89ZM25.913 7.5h-22.5a.939.939 0 0 1 0-1.875h22.5a.939.939 0 0 1 0 1.875Z"/><path fill="url(#b)" d="m11.248 27.255-.937-15.125a.938.938 0 0 0-1.871.116l.937 15.125a.937.937 0 1 0 1.871-.116Z"/><path fill="url(#c)" d="M15 11.25a.937.937 0 0 0-.938.938v15.124a.938.938 0 0 0 1.876 0V12.188A.937.937 0 0 0 15 11.25Z"/><path fill="url(#d)" d="M20.683 11.252a.938.938 0 0 0-.994.877l-.937 15.126a.938.938 0 0 0 1.871.116l.938-15.125a.937.937 0 0 0-.878-.994Z"/><defs><linearGradient id="a" x1="1.5" x2="29.001" y1=".5" y2="32" gradientUnits="userSpaceOnUse"><stop stop-color="#7147E8"/><stop offset=".396" stop-color="#5D57ED"/><stop offset="1" stop-color="#1890FF"/></linearGradient><linearGradient id="b" x1="9.844" x2="9.844" y1="11.25" y2="28.25" gradientUnits="userSpaceOnUse"><stop stop-color="#7147E8"/><stop offset="1" stop-color="#1890FF"/></linearGradient><linearGradient id="c" x1="15" x2="15" y1="11.25" y2="28.25" gradientUnits="userSpaceOnUse"><stop stop-color="#7147E8"/><stop offset="1" stop-color="#1890FF"/></linearGradient><linearGradient id="d" x1="20.5" x2="20" y1="11" y2="28" gradientUnits="userSpaceOnUse"><stop stop-color="#7147E8"/><stop offset="1" stop-color="#1890FF"/></linearGradient></defs></svg>
